Newaita-dark/actions/22/sort-name.svg

<svg height="22" viewBox="0 0 22 22" width="22" xmlns="http://www.w3.org/2000/svg"><g fill="#e0e0e0"><path d="m19.554688 5.175781h-11.367188c-.253906 0-.457031-.203125-.457031-.457031v-.910156c0-.25.203125-.453125.457031-.453125h11.367188c.253906 0 .457031.203125.457031.453125v.910156c0 .253906-.203125.457031-.457031.457031zm0 0"/><path d="m19.554688 11.996094h-11.367188c-.253906 0-.457031-.203125-.457031-.453125v-.910157c0-.25.203125-.457031.457031-.457031h11.367188c.253906 0 .457031.207031.457031.457031v.910157c0 .25-.203125.453125-.457031.453125zm0 0"/><path d="m19.554688 18.820312h-11.367188c-.253906 0-.457031-.207031-.457031-.457031v-.910156c0-.25.203125-.453125.457031-.453125h11.367188c.253906 0 .457031.203125.457031.453125v.910156c0 .25-.203125.457031-.457031.457031zm0 0"/><path d="m4.09375 1.992188c-1.261719 0-2.273438 1.011718-2.273438 2.273437v4.773437c0 .128907.101563.230469.226563.230469h.453125c.128906 0 .230469-.101562.230469-.230469v-2.5h2.726562v2.5c0 .128907.101563.230469.226563.230469h.457031c.125 0 .226563-.101562.226563-.230469v-4.773437c0-1.261719-1.015626-2.273437-2.273438-2.273437zm0 .910156c.753906 0 1.363281.605468 1.363281 1.363281v1.363281h-2.726562v-1.363281c0-.757813.605469-1.363281 1.363281-1.363281zm0 0"/><path d="m3.636719 12.890625c-.042969 0-.085938.003906-.125.015625h-1.464844c-.125 0-.226563.101562-.226563.226562v.457032c0 .125.101563.226562.226563.226562h1.464844c.039062.011719.082031.015625.125.015625h1.464843l-3.238281 5.660157c-.082031.148437-.082031.328124.003907.472656.082031.144531.238281.234375.40625.234375h1.820312c.042969 0 .085938-.003907.128906-.015625h1.917969c.125 0 .226563-.101563.226563-.226563v-.457031c0-.125-.101563-.226562-.226563-.226562h-1.917969c-.042968-.011719-.085937-.015626-.128906-.015626h-1.007812l3.234374-5.664062c.085938-.144531.085938-.324219 0-.46875-.085937-.144531-.238281-.234375-.40625-.234375zm0 0"/></g></svg>

<svg xmlns="http://www.w3.org/2000/svg" xmlns:xlink="http://www.w3.org/1999/xlink" width="22px" height="22px" viewBox="0 0 22 22" version="1.1">
<g id="surface1">
     <defs>
  <style id="current-color-scheme" type="text/css">
   .ColorScheme-Text { color:#eeeeee; } .ColorScheme-Highlight { color:#424242; }
  </style>
 </defs>
<path style="fill:currentColor" class="ColorScheme-Text" d="M 19.554688 5.175781 L 8.1875 5.175781 C 7.933594 5.175781 7.730469 4.972656 7.730469 4.71875 L 7.730469 3.808594 C 7.730469 3.558594 7.933594 3.355469 8.1875 3.355469 L 19.554688 3.355469 C 19.808594 3.355469 20.011719 3.558594 20.011719 3.808594 L 20.011719 4.71875 C 20.011719 4.972656 19.808594 5.175781 19.554688 5.175781 Z M 19.554688 5.175781 "/>
     <defs>
  <style id="current-color-scheme" type="text/css">
   .ColorScheme-Text { color:#eeeeee; } .ColorScheme-Highlight { color:#424242; }
  </style>
 </defs>
<path style="fill:currentColor" class="ColorScheme-Text" d="M 19.554688 11.996094 L 8.1875 11.996094 C 7.933594 11.996094 7.730469 11.792969 7.730469 11.542969 L 7.730469 10.632812 C 7.730469 10.382812 7.933594 10.175781 8.1875 10.175781 L 19.554688 10.175781 C 19.808594 10.175781 20.011719 10.382812 20.011719 10.632812 L 20.011719 11.542969 C 20.011719 11.792969 19.808594 11.996094 19.554688 11.996094 Z M 19.554688 11.996094 "/>
     <defs>
  <style id="current-color-scheme" type="text/css">
   .ColorScheme-Text { color:#eeeeee; } .ColorScheme-Highlight { color:#424242; }
  </style>
 </defs>
<path style="fill:currentColor" class="ColorScheme-Text" d="M 19.554688 18.820312 L 8.1875 18.820312 C 7.933594 18.820312 7.730469 18.613281 7.730469 18.363281 L 7.730469 17.453125 C 7.730469 17.203125 7.933594 17 8.1875 17 L 19.554688 17 C 19.808594 17 20.011719 17.203125 20.011719 17.453125 L 20.011719 18.363281 C 20.011719 18.613281 19.808594 18.820312 19.554688 18.820312 Z M 19.554688 18.820312 "/>
     <defs>
  <style id="current-color-scheme" type="text/css">
   .ColorScheme-Text { color:#eeeeee; } .ColorScheme-Highlight { color:#424242; }
  </style>
 </defs>
<path style="fill:currentColor" class="ColorScheme-Text" d="M 4.09375 1.992188 C 2.832031 1.992188 1.820312 3.003906 1.820312 4.265625 L 1.820312 9.039062 C 1.820312 9.167969 1.921875 9.269531 2.046875 9.269531 L 2.5 9.269531 C 2.628906 9.269531 2.730469 9.167969 2.730469 9.039062 L 2.730469 6.539062 L 5.457031 6.539062 L 5.457031 9.039062 C 5.457031 9.167969 5.558594 9.269531 5.683594 9.269531 L 6.140625 9.269531 C 6.265625 9.269531 6.367188 9.167969 6.367188 9.039062 L 6.367188 4.265625 C 6.367188 3.003906 5.351562 1.992188 4.09375 1.992188 Z M 4.09375 2.902344 C 4.847656 2.902344 5.457031 3.507812 5.457031 4.265625 L 5.457031 5.628906 L 2.730469 5.628906 L 2.730469 4.265625 C 2.730469 3.507812 3.335938 2.902344 4.09375 2.902344 Z M 4.09375 2.902344 "/>
     <defs>
  <style id="current-color-scheme" type="text/css">
   .ColorScheme-Text { color:#eeeeee; } .ColorScheme-Highlight { color:#424242; }
  </style>
 </defs>
<path style="fill:currentColor" class="ColorScheme-Text" d="M 3.636719 12.890625 C 3.59375 12.890625 3.550781 12.894531 3.511719 12.90625 L 2.046875 12.90625 C 1.921875 12.90625 1.820312 13.007812 1.820312 13.132812 L 1.820312 13.589844 C 1.820312 13.714844 1.921875 13.816406 2.046875 13.816406 L 3.511719 13.816406 C 3.550781 13.828125 3.59375 13.832031 3.636719 13.832031 L 5.101562 13.832031 L 1.863281 19.492188 C 1.78125 19.640625 1.78125 19.820312 1.867188 19.964844 C 1.949219 20.109375 2.105469 20.199219 2.273438 20.199219 L 4.09375 20.199219 C 4.136719 20.199219 4.179688 20.195312 4.222656 20.183594 L 6.140625 20.183594 C 6.265625 20.183594 6.367188 20.082031 6.367188 19.957031 L 6.367188 19.5 C 6.367188 19.375 6.265625 19.273438 6.140625 19.273438 L 4.222656 19.273438 C 4.179688 19.261719 4.136719 19.257812 4.09375 19.257812 L 3.085938 19.257812 L 6.320312 13.59375 C 6.40625 13.449219 6.40625 13.269531 6.320312 13.125 C 6.234375 12.980469 6.082031 12.890625 5.914062 12.890625 Z M 3.636719 12.890625 "/>
</g>
</svg>
